src/assets/icons/chrome.svg

<svg width="414" height="414" fill="none" xmlns="http://www.w3.org/2000/svg"><g clip-path="url(#a)"><path d="M386.221 103.5a207.002 207.002 0 0 0-358.524 0l12.42 223.56L386.22 103.5Z" fill="url(#b)"/><path d="M117.369 258.75 27.738 103.5A207.001 207.001 0 0 0 207 414l202.86-207-292.491 51.75Z" fill="url(#c)"/><path d="M296.631 258.75 207 414a207.005 207.005 0 0 0 179.232-103.52 206.999 206.999 0 0 0-.011-206.98H207l89.631 155.25Z" fill="url(#d)"/><path d="M207 310.5a103.506 103.506 0 0 0 73.186-30.314 103.506 103.506 0 0 0 0-146.372 103.506 103.506 0 0 0-146.372 0A103.5 103.5 0 0 0 207 310.5Z" fill="#fff"/><path d="M207 288.972a81.959 81.959 0 0 0 31.369-6.24 81.957 81.957 0 0 0 44.363-44.363 81.959 81.959 0 0 0 0-62.738 81.957 81.957 0 0 0-44.363-44.363A81.972 81.972 0 1 0 207 288.972Z" fill="#1A73E8"/><g filter="url(#e)"><path d="M158 299h340v115H158V299Z" fill="#D9D9D9" fill-opacity=".75" shape-rendering="crispEdges"/></g><path d="M226.664 390H212.47l.088-11.865h14.106c2.93 0 5.405-.703 7.427-2.11 2.051-1.406 3.603-3.501 4.658-6.284 1.084-2.812 1.626-6.269 1.626-10.371v-2.768c0-3.077-.308-5.772-.923-8.086-.586-2.344-1.465-4.292-2.637-5.845-1.171-1.582-2.636-2.769-4.394-3.56-1.729-.791-3.721-1.186-5.977-1.186h-14.238v-11.909h14.238c4.336 0 8.306.747 11.91 2.241 3.632 1.465 6.767 3.574 9.404 6.328 2.666 2.725 4.717 5.962 6.152 9.712 1.465 3.721 2.197 7.851 2.197 12.392v2.681c0 4.512-.732 8.643-2.197 12.393-1.435 3.75-3.472 6.987-6.108 9.712-2.637 2.724-5.757 4.834-9.361 6.328-3.574 1.465-7.5 2.197-11.777 2.197Zm-5.361-63.984V390h-15.425v-63.984h15.425Zm86.88 52.119V390h-34.102v-11.865h34.102Zm-28.609-52.119V390h-15.425v-63.984h15.425Zm24.214 25.4v11.47h-29.707v-11.47h29.707Zm4.526-25.4v11.909h-34.233v-11.909h34.233Zm30.411 48.911 13.315-48.911h17.271L347.733 390h-11.162l2.154-15.073Zm-12.085-48.911 13.315 48.911L342.196 390h-11.294l-21.445-63.984h17.183Z" fill="#333"/></g><defs><linearGradient id="b" x1="27.738" y1="129.375" x2="386.221" y2="129.375" gradientUnits="userSpaceOnUse"><stop stop-color="#D93025"/><stop offset="1" stop-color="#EA4335"/></linearGradient><linearGradient id="c" x1="229.397" y1="401.042" x2="50.135" y2="90.542" gradientUnits="userSpaceOnUse"><stop stop-color="#1E8E3E"/><stop offset="1" stop-color="#34A853"/></linearGradient><linearGradient id="d" x1="176.778" y1="414" x2="356.04" y2="104.038" gradientUnits="userSpaceOnUse"><stop stop-color="#FCC934"/><stop offset="1" stop-color="#FBBC04"/></linearGradient><clipPath id="a"><path fill="#fff" d="M0 0h414v414H0z"/></clipPath><filter id="e" x="154" y="299" width="348" height="123" filterUnits="userSpaceOnUse" color-interpolation-filters="sRGB"><feFlood flood-opacity="0" result="BackgroundImageFix"/><feColorMatrix in="SourceAlpha" values="0 0 0 0 0 0 0 0 0 0 0 0 0 0 0 0 0 0 127 0" result="hardAlpha"/><feOffset dy="4"/><feGaussianBlur stdDeviation="2"/><feComposite in2="hardAlpha" operator="out"/><feColorMatrix values="0 0 0 0 0 0 0 0 0 0 0 0 0 0 0 0 0 0 0.25 0"/><feBlend in2="BackgroundImageFix" result="effect1_dropShadow_20004857_13574"/><feBlend in="SourceGraphic" in2="effect1_dropShadow_20004857_13574" result="shape"/></filter></defs></svg>

<svg width="414" height="414" viewBox="0 0 414 414" fill="none" xmlns="http://www.w3.org/2000/svg">
<g clip-path="url(#clip0_20004857_13574)">
<path d="M386.221 103.5C368.052 72.0344 341.921 45.9055 310.454 27.7391C278.987 9.57279 243.293 0.0090332 206.959 0.0090332C170.624 0.0090332 134.93 9.57279 103.463 27.7391C71.9963 45.9055 45.8654 72.0344 27.6967 103.5L40.1167 327.06L386.221 103.5Z" fill="url(#paint0_linear_20004857_13574)"/>
<path d="M117.369 258.75L27.738 103.5C9.57017 134.968 0.0054798 170.663 0.00524903 206.999C0.00501825 243.334 9.56925 279.03 27.7367 310.498C45.9041 341.966 72.0346 368.097 103.502 386.265C134.969 404.434 170.664 413.999 207 414L409.86 207L117.369 258.75Z" fill="url(#paint1_linear_20004857_13574)"/>
<path d="M296.631 258.75L207 414C243.332 413.992 279.022 404.421 310.484 386.25C341.945 368.078 368.07 341.946 386.232 310.48C404.395 279.013 413.955 243.32 413.953 206.988C413.951 170.656 404.387 134.965 386.221 103.5H207L296.631 258.75Z" fill="url(#paint2_linear_20004857_13574)"/>
<path d="M207 310.5C220.592 310.5 234.051 307.823 246.608 302.622C259.165 297.42 270.575 289.796 280.186 280.186C289.796 270.575 297.42 259.165 302.622 246.608C307.823 234.051 310.5 220.592 310.5 207C310.5 193.408 307.823 179.949 302.622 167.392C297.42 154.835 289.796 143.425 280.186 133.814C270.575 124.204 259.165 116.58 246.608 111.378C234.051 106.177 220.592 103.5 207 103.5C179.55 103.5 153.224 114.404 133.814 133.814C114.404 153.224 103.5 179.55 103.5 207C103.5 234.45 114.404 260.776 133.814 280.186C153.224 299.596 179.55 310.5 207 310.5Z" fill="white"/>
<path d="M207 288.972C217.765 288.972 228.424 286.852 238.369 282.732C248.315 278.613 257.351 272.575 264.963 264.963C272.575 257.351 278.613 248.315 282.732 238.369C286.852 228.424 288.972 217.765 288.972 207C288.972 196.235 286.852 185.576 282.732 175.631C278.613 165.685 272.575 156.649 264.963 149.037C257.351 141.425 248.315 135.387 238.369 131.268C228.424 127.148 217.765 125.028 207 125.028C185.26 125.028 164.41 133.664 149.037 149.037C133.664 164.41 125.028 185.26 125.028 207C125.028 228.74 133.664 249.59 149.037 264.963C164.41 280.336 185.26 288.972 207 288.972V288.972Z" fill="#1A73E8"/>
<g filter="url(#filter0_d_20004857_13574)">
<path d="M158 299H498V414H158V299Z" fill="#D9D9D9" fill-opacity="0.75" shape-rendering="crispEdges"/>
</g>
<path d="M226.664 390H212.47L212.558 378.135H226.664C229.594 378.135 232.069 377.432 234.091 376.025C236.142 374.619 237.694 372.524 238.749 369.741C239.833 366.929 240.375 363.472 240.375 359.37V356.602C240.375 353.525 240.067 350.83 239.452 348.516C238.866 346.172 237.987 344.224 236.815 342.671C235.644 341.089 234.179 339.902 232.421 339.111C230.692 338.32 228.7 337.925 226.444 337.925H212.206V326.016H226.444C230.78 326.016 234.75 326.763 238.354 328.257C241.986 329.722 245.121 331.831 247.758 334.585C250.424 337.31 252.475 340.547 253.91 344.297C255.375 348.018 256.107 352.148 256.107 356.689V359.37C256.107 363.882 255.375 368.013 253.91 371.763C252.475 375.513 250.438 378.75 247.802 381.475C245.165 384.199 242.045 386.309 238.441 387.803C234.867 389.268 230.941 390 226.664 390ZM221.303 326.016V390H205.878V326.016H221.303ZM308.183 378.135V390H274.081V378.135H308.183ZM279.574 326.016V390H264.149V326.016H279.574ZM303.788 351.416V362.886H274.081V351.416H303.788ZM308.314 326.016V337.925H274.081V326.016H308.314ZM338.725 374.927L352.04 326.016H369.311L347.733 390H336.571L338.725 374.927ZM326.64 326.016L339.955 374.927L342.196 390H330.902L309.457 326.016H326.64Z" fill="#333333"/>
</g>
<defs>
<filter id="filter0_d_20004857_13574" x="154" y="299" width="348" height="123" filterUnits="userSpaceOnUse" color-interpolation-filters="sRGB">
<feFlood flood-opacity="0" result="BackgroundImageFix"/>
<feColorMatrix in="SourceAlpha" type="matrix" values="0 0 0 0 0 0 0 0 0 0 0 0 0 0 0 0 0 0 127 0" result="hardAlpha"/>
<feOffset dy="4"/>
<feGaussianBlur stdDeviation="2"/>
<feComposite in2="hardAlpha" operator="out"/>
<feColorMatrix type="matrix" values="0 0 0 0 0 0 0 0 0 0 0 0 0 0 0 0 0 0 0.25 0"/>
<feBlend mode="normal" in2="BackgroundImageFix" result="effect1_dropShadow_20004857_13574"/>
<feBlend mode="normal" in="SourceGraphic" in2="effect1_dropShadow_20004857_13574" result="shape"/>
</filter>
<linearGradient id="paint0_linear_20004857_13574" x1="27.7381" y1="129.375" x2="386.221" y2="129.375" gradientUnits="userSpaceOnUse">
<stop stop-color="#D93025"/>
<stop offset="1" stop-color="#EA4335"/>
</linearGradient>
<linearGradient id="paint1_linear_20004857_13574" x1="229.397" y1="401.042" x2="50.1354" y2="90.5418" gradientUnits="userSpaceOnUse">
<stop stop-color="#1E8E3E"/>
<stop offset="1" stop-color="#34A853"/>
</linearGradient>
<linearGradient id="paint2_linear_20004857_13574" x1="176.778" y1="414" x2="356.04" y2="104.038" gradientUnits="userSpaceOnUse">
<stop stop-color="#FCC934"/>
<stop offset="1" stop-color="#FBBC04"/>
</linearGradient>
<clipPath id="clip0_20004857_13574">
<rect width="414" height="414" fill="white"/>
</clipPath>
</defs>
</svg>
